X: 1510
T: Gundy's Schottische
B: australian traditional tunes wiki
M:4/4
L:1/8
R: Schottische
Q: 1/4=100
K:G
V:1 
D>D|"G"(3DED B,>D "Em"B2G>D|"C"(3EFE C>C "Am"c3A|"G"(3BGB (3AFE "D"D>F A>F|"G"A>G G>B "D"d4|
"G"(3DED B,>D "Em"B2G>D|"C"(3EFE C>C "Am"c3A|"G"(3BGB (3AFE "D"D>F A>F|"G"G2"C"G2"G"G4||
"G"d>B (3GBd "C"g2e>c|"G"d>B G>B "D"d3 A/B/|d>c A>B "Am"c>A e>e|"G"e>B G>B "D"d4|
"G"d>B (3GBd "C"g2 e>c|"G"d>B G>B "D"d3A|"G"(3BGB (3AFE "D"D>F A>F|"G"G2"C"G2"G"G4||
% abcbook-tune_id 6342d53a611769ab66581629


% abcbook-boost 0
% abcbook-tablature 
% abcbook-transpose 
% abcbook-lastupdated 1665324368528
% abcbook-soundfonts 
% abcbook-repeats 1
% NFF Book 2009

